app/icons/quotes-right.svg

﻿<svg xmlns="http://www.w3.org/2000/svg" xmlns:xlink="http://www.w3.org/1999/xlink" viewBox="0 0 50 50" version="1.1" width="50" height="50">
<g id="surface1">
<path style=" " d="M 2 9 L 2 29 L 13 29 L 13 31 C 13 33.007813 12.382813 34.804688 11.441406 36.058594 C 10.503906 37.308594 9.296875 38 8 38 L 7 38 L 7 45 L 8 45 C 15.71875 45 22 38.71875 22 31 L 22 9 Z M 28 9 L 28 29 L 39 29 L 39 31 C 39 33.007813 38.382813 34.804688 37.441406 36.058594 C 36.503906 37.308594 35.296875 38 34 38 L 33 38 L 33 45 L 34 45 C 41.71875 45 48 38.71875 48 31 L 48 9 Z M 4 11 L 20 11 L 20 31 C 20 37.285156 15.144531 42.265625 9 42.796875 L 9 39.734375 C 10.585938 39.425781 12.03125 38.605469 13.042969 37.253906 C 14.273438 35.613281 15 33.410156 15 31 L 15 27 L 4 27 Z M 30 11 L 46 11 L 46 31 C 46 37.285156 41.144531 42.265625 35 42.796875 L 35 39.734375 C 36.585938 39.425781 38.03125 38.605469 39.042969 37.253906 C 40.273438 35.613281 41 33.410156 41 31 L 41 27 L 30 27 Z "/>
</g>
</svg>

<?xml version="1.0" encoding="utf-8"?>
<!-- Generator: Adobe Illustrator 17.0.0, SVG Export Plug-In . SVG Version: 6.00 Build 0)  -->
<!DOCTYPE svg PUBLIC "-//W3C//DTD SVG 1.1//EN" "http://www.w3.org/Graphics/SVG/1.1/DTD/svg11.dtd">
<svg version="1.1" id="Layer_1" xmlns="http://www.w3.org/2000/svg" xmlns:xlink="http://www.w3.org/1999/xlink" x="0px" y="0px"
	 width="50px" height="50px" viewBox="0 0 50 50" enable-background="new 0 0 50 50" xml:space="preserve">
<path d="M2,29h11v2c0,2.008-0.617,3.805-1.559,5.059C10.504,37.309,9.297,38,8,38H7v7h1c7.719,0,14-6.281,14-14V9H2V29z M4,11h16v20
	c0,6.285-4.855,11.266-11,11.797v-3.063c1.586-0.309,3.031-1.129,4.043-2.48C14.273,35.613,15,33.41,15,31v-4H4V11z M28,9v20h11v2
	c0,2.008-0.617,3.805-1.559,5.059C36.504,37.309,35.297,38,34,38h-1v7h1c7.719,0,14-6.281,14-14V9H28z M46,31
	c0,6.285-4.855,11.266-11,11.797v-3.063c1.586-0.309,3.031-1.129,4.043-2.48C40.273,35.613,41,33.41,41,31v-4H30V11h16V31z"/>
</svg>
